X: 355
T: Zizhao de duixiang xinzhong ai
%%abc-version 2.0
%%abcx-abcm2ps-target-version 5.9.1 (29 Sep 2008)
%%abc-creator hum2abc beta
%%abcx-conversion-date 2013/10/02 07:52:30
%%abc-edited-by Helmut Schaffrath
%%humdrum-veritas 386129784
%%humdrum-veritas-data 337655267
%%continueall 1
%%barnumbers 0
L: 1/16
M: 2/4
K: Bb
d'2 d' a c'2 b c' [I:setbarnb 1]| 
b2> c'2 g'2 f' d' | 
c'2 f' a g2 f d | 
c8 | 
d'2 d' a c'2 b c' | 
b2> c'2 g'2 f' d' | 
c'2 f' a g2 f d | 
f8 |]  



